assets/svg/auroragrandspa.svg

<svg width="70" height="41" viewBox="0 0 70 41" fill="none" xmlns="http://www.w3.org/2000/svg">
<g clip-path="url(#clip0_1_2)">
<path d="M9.83997 40.6623L8.22074 37.1846H2.24202L0.711752 40.6623H0L5.58726 28.0535H5.81857L11.6905 40.6623H9.83997ZM2.52672 36.5426H7.91824L5.14241 30.5681L2.52672 36.5426Z" fill="#D0B26C"/>
<path d="M21.948 28.1783V35.8114C21.948 37.3689 21.5209 38.5995 20.6668 39.5031C19.8246 40.3948 18.6502 40.8407 17.1436 40.8407C15.6134 40.8407 14.3915 40.3948 13.4781 39.5031C12.5647 38.5995 12.108 37.363 12.108 35.7936V28.1783H13.7984V35.8649C13.7984 37.1846 14.1187 38.219 14.7593 38.9681C15.3998 39.7171 16.2955 40.0916 17.4461 40.0916C18.6324 40.0916 19.5577 39.7112 20.222 38.9502C20.8981 38.1893 21.2362 37.1252 21.2362 35.7579V28.1783H21.948Z" fill="#D0B26C"/>
<path d="M33.5783 40.6623H31.7277L28.685 34.8305C28.5901 34.8424 28.4418 34.8484 28.2402 34.8484H25.7312V40.6623H24.0408V28.1783H28.2402C29.723 28.1783 30.8914 28.4875 31.7455 29.1057C32.6115 29.724 33.0445 30.5265 33.0445 31.5134C33.0445 32.3575 32.7242 33.0709 32.0836 33.6535C31.4549 34.236 30.5771 34.6046 29.4501 34.7592L29.9484 35.7044H30.9804L33.5783 40.6623ZM27.6886 34.2063C28.8392 34.2063 29.723 33.9626 30.3398 33.4751C30.9567 32.9758 31.2651 32.3218 31.2651 31.5134C31.2651 30.7049 30.9567 30.0569 30.3398 29.5694C29.723 29.0701 28.8392 28.8204 27.6886 28.8204H25.7312V34.2063H27.6886Z" fill="#D0B26C"/>
<path d="M40.5675 28C42.2757 28 43.7645 28.6123 45.0338 29.8369C46.3031 31.0616 46.9377 32.5894 46.9377 34.4203C46.9377 36.2513 46.3031 37.7791 45.0338 39.0037C43.7645 40.2284 42.2757 40.8407 40.5675 40.8407C39.4524 40.8407 38.4085 40.5731 37.4358 40.0381C36.4749 39.4912 35.692 38.7243 35.087 37.7375C34.4939 36.7388 34.1973 35.6331 34.1973 34.4203C34.1973 33.2076 34.4939 32.1078 35.087 31.121C35.692 30.1223 36.4749 29.3554 37.4358 28.8204C38.4085 28.2735 39.4524 28 40.5675 28ZM37.2401 38.6649C38.0704 39.6874 39.1796 40.1986 40.5675 40.1986C41.9554 40.1986 43.0587 39.6874 43.8772 38.6649C44.7075 37.6305 45.1227 36.2156 45.1227 34.4203C45.1227 32.625 44.7075 31.2161 43.8772 30.1936C43.0587 29.1592 41.9554 28.642 40.5675 28.642C39.1796 28.642 38.0704 29.1592 37.2401 30.1936C36.4216 31.2161 36.0123 32.625 36.0123 34.4203C36.0123 36.2156 36.4216 37.6305 37.2401 38.6649Z" fill="#D0B26C"/>
<path d="M57.9586 40.6623H56.108L53.0653 34.8305C52.9704 34.8424 52.8221 34.8484 52.6205 34.8484H50.1115V40.6623H48.4211V28.1783H52.6205C54.1033 28.1783 55.2717 28.4875 56.1258 29.1057C56.9918 29.724 57.4248 30.5265 57.4248 31.5134C57.4248 32.3575 57.1045 33.0709 56.4639 33.6535C55.8352 34.236 54.9574 34.6046 53.8304 34.7592L54.3287 35.7044H55.3607L57.9586 40.6623ZM52.0688 34.2063C53.2195 34.2063 54.1033 33.9626 54.7201 33.4751C55.337 32.9758 55.6454 32.3218 55.6454 31.5134C55.6454 30.7049 55.337 30.0569 54.7201 29.5694C54.1033 29.0701 53.2195 28.8204 52.0688 28.8204H50.1115V34.2063H52.0688Z" fill="#D0B26C"/>
<path d="M68.1494 40.6623L66.5302 37.1846H60.5515L59.0212 40.6623H58.3095L63.8967 28.0535H64.128L70 40.6623H68.1494ZM60.8362 36.5426H66.2277L63.4519 30.5681L60.8362 36.5426Z" fill="#D0B26C"/>
<path d="M7.81147 6.6343H12.598V12.8406H12.0642L11.05 11.2355C10.0061 12.3056 8.64185 12.8406 6.95737 12.8406C5.78298 12.8406 4.69756 12.591 3.7011 12.0916C2.70465 11.5922 1.89206 10.8491 1.26335 9.8623C0.634639 8.8755 0.320282 7.74 0.320282 6.456C0.320282 4.5774 0.931202 3.0318 2.15304 1.8191C3.38674 0.606299 4.94667 0 6.83281 0C8.4817 0 9.82217 0.4756 10.8542 1.4267C11.8863 2.3779 12.426 3.656 12.4735 5.2611H11.7261C11.6787 3.8819 11.2338 2.7762 10.3916 1.9439C9.5612 1.0998 8.46984 0.677699 7.11751 0.677699C5.6347 0.677699 4.44251 1.1949 3.54096 2.2293C2.6394 3.2517 2.18863 4.619 2.18863 6.3311C2.18863 8.1146 2.66313 9.5354 3.61213 10.5935C4.56114 11.6517 5.79484 12.1808 7.31324 12.1808C8.74861 12.1808 9.94673 11.6457 10.9076 10.5757V7.2763H7.81147V6.6343Z" fill="#D0B26C"/>
<path d="M24.2727 12.6623H22.4221L19.3794 6.83048C19.2845 6.84238 19.1362 6.84828 18.9346 6.84828H16.4256V12.6623H14.7352V0.178284H18.9346C20.4174 0.178284 21.5858 0.487383 22.4399 1.10568C23.3059 1.72388 23.7389 2.52648 23.7389 3.51328C23.7389 4.35748 23.4186 5.07078 22.778 5.65338C22.1493 6.23598 21.2715 6.60458 20.1445 6.75918L20.6428 7.70438H21.6748L24.2727 12.6623ZM18.3829 6.20628C19.5336 6.20628 20.4174 5.96258 21.0342 5.47508C21.6511 4.97568 21.9595 4.32178 21.9595 3.51328C21.9595 2.70478 21.6511 2.05688 21.0342 1.56938C20.4174 1.06998 19.5336 0.820283 18.3829 0.820283H16.4256V6.20628H18.3829Z" fill="#D0B26C"/>
<path d="M34.4635 12.6623L32.8443 9.1846H26.8656L25.3353 12.6623H24.6236L30.2108 0.0534973H30.4421L36.3141 12.6623H34.4635ZM27.1503 8.5426H32.5418L29.766 2.5681L27.1503 8.5426Z" fill="#D0B26C"/>
<path d="M47.0204 0.178284H47.7322V12.7871H47.3585L38.1591 1.06998V12.6623H37.4473V0.178284H39.6182L47.0204 9.59478V0.178284Z" fill="#D0B26C"/>
<path d="M53.7933 0.178284C56.0353 0.178284 57.8147 0.743083 59.1315 1.87258C60.4482 3.00208 61.1066 4.51798 61.1066 6.42028C61.1066 8.32258 60.4482 9.83848 59.1315 10.968C57.8147 12.0975 56.0353 12.6623 53.7933 12.6623H49.9676V0.178284H53.7933ZM53.7933 12.0203C55.5964 12.0203 56.9547 11.5268 57.8681 10.54C58.7815 9.55318 59.2382 8.17988 59.2382 6.42028C59.2382 4.66068 58.7815 3.28738 57.8681 2.30058C56.9547 1.31378 55.5964 0.820283 53.7933 0.820283H51.6581V12.0203H53.7933Z" fill="#D0B26C"/>
<path d="M4.8933 27C3.50538 27 2.3903 26.6433 1.54806 25.9299C0.717679 25.2047 0.30249 24.2535 0.30249 23.0765H1.01425C1.01425 24.0633 1.36419 24.8599 2.06408 25.4663C2.77583 26.0607 3.70704 26.358 4.85771 26.358C5.7474 26.358 6.45915 26.1558 6.99297 25.7516C7.52678 25.3474 7.79369 24.8004 7.79369 24.1109C7.79369 23.6353 7.65727 23.231 7.38443 22.8981C7.12345 22.5533 6.77351 22.2918 6.3346 22.1134C5.90754 21.9232 5.43304 21.7508 4.91109 21.5962C4.401 21.4417 3.88498 21.2752 3.36303 21.0969C2.84108 20.9066 2.36065 20.6867 1.92173 20.437C1.49468 20.1873 1.14473 19.8366 0.871892 19.3848C0.610916 18.933 0.480428 18.392 0.480428 17.7619C0.480428 16.6799 0.854098 15.812 1.60144 15.1581C2.36065 14.4922 3.3571 14.1593 4.5908 14.1593C5.81264 14.1593 6.79723 14.4863 7.54457 15.1402C8.29191 15.7823 8.66558 16.6442 8.66558 17.7262H7.95382C7.95382 16.8464 7.64541 16.1389 7.02855 15.6039C6.42356 15.0689 5.62877 14.8014 4.64418 14.8014C3.79008 14.8014 3.10799 15.0035 2.5979 15.4077C2.09967 15.812 1.85056 16.353 1.85056 17.0307C1.85056 17.5062 1.98104 17.9105 2.24202 18.2434C2.51486 18.5763 2.8648 18.8379 3.29185 19.0281C3.73077 19.2064 4.2112 19.3729 4.73315 19.5275C5.2551 19.682 5.77706 19.8544 6.29901 20.0446C6.82096 20.223 7.29546 20.437 7.72251 20.6867C8.16143 20.9364 8.51137 21.2871 8.77235 21.7389C9.04518 22.1907 9.18159 22.7317 9.18159 23.3618C9.18159 24.4557 8.78421 25.3355 7.98942 26.0013C7.20649 26.6671 6.17445 27 4.8933 27Z" fill="#D0B26C"/>
<path d="M14.7616 14.3377C16.3868 14.3377 17.6264 14.6468 18.4805 15.2651C19.3465 15.8833 19.7795 16.7275 19.7795 17.7975C19.7795 18.9033 19.3524 19.7831 18.4983 20.437C17.6442 21.0909 16.3987 21.4179 14.7616 21.4179H12.3595V26.8217H10.6691V14.3377H14.7616ZM14.6727 20.7758C15.7522 20.7758 16.5766 20.5083 17.146 19.9733C17.7154 19.4383 18.0001 18.719 18.0001 17.8154C18.0001 16.9474 17.7154 16.2578 17.146 15.7466C16.5766 15.2353 15.7522 14.9797 14.6727 14.9797H12.3595V20.7758H14.6727Z" fill="#D0B26C"/>
<path d="M28.0689 26.8217L26.4497 23.344H20.4709L18.9407 26.8217H18.2289L23.8162 14.2128H24.0475L29.9195 26.8217H28.0689ZM20.7556 22.702H26.1472L23.3713 16.7275L20.7556 22.702Z" fill="#D0B26C"/>
</g>
<defs>
<clipPath id="clip0_1_2">
<rect width="70" height="41" fill="white"/>
</clipPath>
</defs>
</svg>

<svg width="70" height="41" viewBox="0 0 70 41" fill="none" xmlns="http://www.w3.org/2000/svg"><g clip-path="url(#auroragrandspa_svg__a)" fill="#D0B26C"><path d="m9.84 40.662-1.62-3.477H2.243l-1.53 3.477H0l5.587-12.608h.232l5.872 12.608H9.84Zm-7.313-4.12h5.391l-2.776-5.974-2.615 5.975ZM21.948 28.178v7.633c0 1.558-.427 2.788-1.281 3.692-.842.892-2.017 1.338-3.523 1.338-1.53 0-2.752-.446-3.666-1.338-.913-.904-1.37-2.14-1.37-3.71v-7.615h1.69v7.687c0 1.32.32 2.354.961 3.103.64.75 1.537 1.124 2.687 1.124 1.186 0 2.112-.38 2.776-1.142.676-.76 1.014-1.825 1.014-3.192v-7.58h.712ZM33.578 40.662h-1.85l-3.043-5.831a3.955 3.955 0 0 1-.445.017h-2.509v5.814h-1.69V28.178h4.2c1.482 0 2.65.31 3.505.928.866.618 1.299 1.42 1.299 2.407 0 .845-.32 1.558-.961 2.14-.63.583-1.507.952-2.634 1.106l.498.945h1.032l2.598 4.958Zm-5.89-6.456c1.151 0 2.035-.243 2.652-.73.617-.5.925-1.154.925-1.963 0-.808-.308-1.456-.925-1.944-.617-.499-1.5-.749-2.651-.749H25.73v5.386h1.958ZM40.568 28c1.708 0 3.197.612 4.466 1.837 1.27 1.225 1.904 2.752 1.904 4.583 0 1.831-.635 3.36-1.904 4.584-1.27 1.224-2.758 1.837-4.466 1.837a6.397 6.397 0 0 1-3.132-.803c-.961-.547-1.744-1.314-2.349-2.3-.593-1-.89-2.105-.89-3.318 0-1.212.297-2.312.89-3.299.605-.999 1.388-1.766 2.349-2.3A6.288 6.288 0 0 1 40.568 28ZM37.24 38.665c.83 1.022 1.94 1.534 3.328 1.534 1.387 0 2.49-.512 3.31-1.534.83-1.035 1.245-2.45 1.245-4.245s-.415-3.204-1.246-4.226c-.818-1.035-1.922-1.552-3.31-1.552-1.387 0-2.497.517-3.327 1.552-.818 1.022-1.228 2.431-1.228 4.226 0 1.796.41 3.21 1.228 4.245ZM57.959 40.662h-1.851l-3.043-5.831a3.955 3.955 0 0 1-.444.017h-2.51v5.814h-1.69V28.178h4.2c1.482 0 2.65.31 3.505.928.866.618 1.299 1.42 1.299 2.407 0 .845-.32 1.558-.961 2.14-.629.583-1.507.952-2.634 1.106l.499.945h1.032l2.598 4.958Zm-5.89-6.456c1.15 0 2.034-.243 2.651-.73.617-.5.925-1.154.925-1.963 0-.808-.308-1.456-.925-1.944-.617-.499-1.5-.749-2.651-.749H50.11v5.386h1.958ZM68.15 40.662l-1.62-3.477h-5.979l-1.53 3.477h-.712l5.588-12.608h.231L70 40.662h-1.85Zm-7.314-4.12h5.392l-2.776-5.974-2.616 5.975ZM7.811 6.634h4.787v6.207h-.534l-1.014-1.605c-1.044 1.07-2.408 1.605-4.093 1.605-1.174 0-2.26-.25-3.256-.75-.996-.499-1.809-1.242-2.438-2.229C.635 8.876.32 7.74.32 6.456c0-1.879.611-3.424 1.833-4.637C3.387.606 4.947 0 6.833 0c1.649 0 2.99.476 4.021 1.427 1.032.95 1.572 2.229 1.62 3.834h-.748c-.047-1.38-.492-2.485-1.334-3.317C9.562 1.1 8.47.678 7.118.678c-1.483 0-2.675.517-3.577 1.551-.902 1.023-1.352 2.39-1.352 4.102 0 1.784.474 3.204 1.423 4.263.95 1.058 2.183 1.587 3.701 1.587 1.436 0 2.634-.535 3.595-1.605v-3.3H7.81v-.642ZM24.273 12.662h-1.85L19.378 6.83a3.96 3.96 0 0 1-.444.018h-2.51v5.814h-1.69V.178h4.2c1.482 0 2.65.31 3.505.928.866.618 1.299 1.42 1.299 2.407 0 .844-.32 1.558-.961 2.14-.629.583-1.506.952-2.633 1.106l.498.945h1.032l2.598 4.958Zm-5.89-6.456c1.15 0 2.034-.243 2.651-.73.617-.5.925-1.154.925-1.963 0-.808-.308-1.456-.925-1.944-.617-.499-1.5-.749-2.651-.749h-1.957v5.386h1.957ZM34.464 12.662l-1.62-3.477h-5.978l-1.53 3.477h-.712L30.21.053h.231l5.872 12.61h-1.85Zm-7.314-4.12h5.392l-2.776-5.974-2.616 5.975ZM47.02.178h.712v12.61h-.373l-9.2-11.718v11.592h-.712V.178h2.171l7.402 9.417V.178ZM53.793.178c2.242 0 4.022.565 5.339 1.695 1.316 1.13 1.975 2.645 1.975 4.547 0 1.903-.659 3.418-1.975 4.548-1.317 1.13-3.097 1.694-5.339 1.694h-3.825V.178h3.825Zm0 11.842c1.803 0 3.162-.493 4.075-1.48.913-.987 1.37-2.36 1.37-4.12 0-1.76-.456-3.133-1.37-4.12-.913-.986-2.272-1.48-4.075-1.48h-2.135v11.2h2.135ZM4.893 27c-1.388 0-2.503-.357-3.345-1.07-.83-.725-1.246-1.677-1.246-2.854h.712c0 .987.35 1.784 1.05 2.39.712.595 1.643.892 2.794.892.89 0 1.601-.202 2.135-.606.534-.405.8-.952.8-1.641 0-.476-.136-.88-.409-1.213a2.431 2.431 0 0 0-1.05-.785c-.426-.19-.901-.362-1.423-.517a46.392 46.392 0 0 1-1.548-.5 9.468 9.468 0 0 1-1.441-.659 2.97 2.97 0 0 1-1.05-1.052C.61 18.933.48 18.392.48 17.762c0-1.082.374-1.95 1.121-2.604.76-.666 1.756-.999 2.99-.999 1.222 0 2.206.327 2.954.981.747.642 1.12 1.504 1.12 2.586h-.711c0-.88-.309-1.587-.925-2.122-.605-.535-1.4-.803-2.385-.803-.854 0-1.536.203-2.046.607-.498.404-.747.945-.747 1.623 0 .475.13.88.391 1.212.273.333.623.595 1.05.785.439.178.92.345 1.441.5.522.154 1.044.326 1.566.517.522.178.996.392 1.424.642.438.25.788.6 1.05 1.052.272.452.409.993.409 1.623 0 1.094-.398 1.974-1.193 2.64-.783.665-1.815.998-3.096.998ZM14.762 14.338c1.625 0 2.864.309 3.718.927.866.618 1.3 1.462 1.3 2.532 0 1.106-.428 1.986-1.282 2.64-.854.654-2.1.98-3.736.98H12.36v5.405h-1.69V14.338h4.092Zm-.09 6.438c1.08 0 1.905-.268 2.474-.803.57-.535.854-1.254.854-2.158 0-.868-.285-1.557-.854-2.068-.57-.512-1.394-.767-2.473-.767H12.36v5.796h2.313ZM28.069 26.822l-1.62-3.478h-5.978l-1.53 3.478h-.712l5.587-12.61h.232l5.872 12.61h-1.851Zm-7.313-4.12h5.391l-2.776-5.975-2.615 5.975Z"/></g><defs><clipPath id="auroragrandspa_svg__a"><path fill="#fff" d="M0 0h70v41H0z"/></clipPath></defs></svg>
